_includes/svg/clipboard.svg

<svg width="87px" height="100px" viewBox="0 0 87 100" version="1.1" xmlns="http://www.w3.org/2000/svg" xmlns:xlink="http://www.w3.org/1999/xlink">
    <!-- Generator: Sketch 43.2 (39069) - http://www.bohemiancoding.com/sketch -->
    <title>021-medical-history-1</title>
    <defs></defs>
    <g id="Page-1" stroke="none" stroke-width="1" fill="none" fill-rule="evenodd">
        <g id="CTreposition" transform="translate(-758.000000, -1404.000000)" fill-rule="nonzero">
            <g id="021-medical-history-1" transform="translate(758.000000, 1404.000000)">
                <path d="M65.8155319,93.0495745 C65.8155319,95.5574468 63.7842553,97.5885106 61.2765957,97.5885106 L6.80851064,97.5885106 C4.3006383,97.5885106 2.26957447,95.557234 2.26957447,93.0495745 L2.26957447,15.8865957 C2.26957447,13.3787234 4.30085106,11.3476596 6.80851064,11.3476596 L61.2765957,11.3476596 C63.7844681,11.3476596 65.8155319,13.3789362 65.8155319,15.8865957 L65.8155319,93.0495745 L65.8155319,93.0495745 Z" id="Shape" fill="#FFFFFF"></path>
                <path d="M61.2765957,99.8580851 L6.80851064,99.8580851 C3.05468085,99.8580851 0,96.8034043 0,93.0495745 L0,15.8865957 C0,12.132766 3.05468085,9.07808511 6.80851064,9.07808511 L61.2765957,9.07808511 C65.0304255,9.07808511 68.0851064,12.132766 68.0851064,15.8865957 L68.0851064,93.0497872 C68.0851064,96.8034043 65.0304255,99.8580851 61.2765957,99.8580851 Z M6.80851064,13.6170213 C5.55808511,13.6170213 4.53893617,14.6359574 4.53893617,15.8865957 L4.53893617,93.0497872 C4.53893617,94.3002128 5.55808511,95.3191489 6.80851064,95.3191489 L61.2765957,95.3191489 C62.5270213,95.3191489 63.5461702,94.3002128 63.5461702,93.0495745 L63.5461702,15.8865957 C63.5461702,14.6359574 62.5270213,13.6170213 61.2765957,13.6170213 L6.80851064,13.6170213 Z" id="Shape" fill="#000000"></path>
                <path d="M54.4680851,90.7802128 L13.6170213,90.7802128 C11.1091489,90.7802128 9.07808511,88.7489362 9.07808511,86.2412766 L9.07808511,20.4255319 L59.007234,20.4255319 L59.007234,86.2410638 C59.0070213,88.7489362 56.9759574,90.7802128 54.4680851,90.7802128 Z" id="Shape" fill="#D8EFF7"></path>
                <path d="M56.7376596,20.4255319 L11.3474468,20.4255319 L11.3474468,15.8865957 C11.3474468,8.36553191 17.4434043,2.26957447 24.9644681,2.26957447 L43.1204255,2.26957447 C50.6414894,2.26957447 56.7374468,8.36553191 56.7374468,15.8865957 L56.7374468,20.4255319 L56.7376596,20.4255319 Z" id="Shape" fill="#0093FF"></path>
                <path d="M56.7376596,22.6951064 L11.3474468,22.6951064 C10.0946809,22.6951064 9.07787234,21.6782979 9.07787234,20.4255319 L9.07787234,15.8865957 C9.07808511,7.12617021 16.2042553,0 24.9644681,0 L43.1204255,0 C51.8806383,0 59.0070213,7.12617021 59.0070213,15.8865957 L59.0070213,20.4255319 C59.0070213,21.6782979 57.9904255,22.6951064 56.7376596,22.6951064 Z M13.6170213,18.1559574 L54.4680851,18.1559574 L54.4680851,15.8865957 C54.4680851,9.62957447 49.3776596,4.53914894 43.1206383,4.53914894 L24.9646809,4.53914894 C18.7074468,4.53893617 13.6170213,9.62957447 13.6170213,15.8865957 L13.6170213,18.1559574 Z" id="Shape" fill="#000000"></path>
                <circle id="Oval" fill="#000000" cx="34.0425532" cy="11.3474468" r="2.26957447"></circle>
                <path d="M52.1985106,34.0425532 L15.8865957,34.0425532 C14.6338298,34.0425532 13.6170213,33.0257447 13.6170213,31.7729787 C13.6170213,30.5202128 14.6338298,29.5034043 15.8865957,29.5034043 L52.1987234,29.5034043 C53.4514894,29.5034043 54.4682979,30.5202128 54.4682979,31.7729787 C54.4682979,33.0257447 53.4512766,34.0425532 52.1985106,34.0425532 Z" id="Shape" fill="#000000"></path>
                <path d="M34.0425532,45.39 L15.8865957,45.39 C14.6338298,45.39 13.6170213,44.3731915 13.6170213,43.1204255 C13.6170213,41.8676596 14.6338298,40.8510638 15.8865957,40.8510638 L34.0425532,40.8510638 C35.2953191,40.8510638 36.3121277,41.8678723 36.3121277,43.1206383 C36.3121277,44.3734043 35.2953191,45.39 34.0425532,45.39 Z" id="Shape" fill="#000000"></path>
                <path d="M52.1985106,45.39 L43.1204255,45.39 C41.8676596,45.39 40.8508511,44.3731915 40.8508511,43.1204255 C40.8508511,41.8676596 41.8678723,40.8510638 43.1206383,40.8510638 L52.1987234,40.8510638 C53.4514894,40.8510638 54.4682979,41.8678723 54.4682979,43.1206383 C54.4682979,44.3734043 53.4512766,45.39 52.1985106,45.39 Z" id="Shape" fill="#000000"></path>
                <path d="M52.1985106,56.7376596 L34.0425532,56.7376596 C32.7897872,56.7376596 31.7729787,55.7208511 31.7729787,54.4680851 C31.7729787,53.2153191 32.7897872,52.1985106 34.0425532,52.1985106 L52.1985106,52.1985106 C53.4512766,52.1985106 54.4680851,53.2153191 54.4680851,54.4680851 C54.4680851,55.7208511 53.4512766,56.7376596 52.1985106,56.7376596 Z" id="Shape" fill="#000000"></path>
                <path d="M24.9644681,56.7376596 L15.886383,56.7376596 C14.6338298,56.7376596 13.6170213,55.7208511 13.6170213,54.4680851 C13.6170213,53.2153191 14.6338298,52.1985106 15.8865957,52.1985106 L24.9646809,52.1985106 C26.2174468,52.1985106 27.2342553,53.2153191 27.2342553,54.4680851 C27.2342553,55.7208511 26.217234,56.7376596 24.9644681,56.7376596 Z" id="Shape" fill="#000000"></path>
                <path d="M52.1985106,79.4325532 L34.0425532,79.4325532 C32.7897872,79.4325532 31.7729787,78.4157447 31.7729787,77.1629787 C31.7729787,75.9102128 32.7897872,74.8934043 34.0425532,74.8934043 L52.1985106,74.8934043 C53.4512766,74.8934043 54.4680851,75.9102128 54.4680851,77.1629787 C54.4680851,78.4159574 53.4512766,79.4325532 52.1985106,79.4325532 Z" id="Shape" fill="#000000"></path>
                <path d="M24.9644681,79.4325532 L15.886383,79.4325532 C14.633617,79.4325532 13.6168085,78.4157447 13.6168085,77.1629787 C13.6168085,75.9102128 14.633617,74.8934043 15.886383,74.8934043 L24.9644681,74.8934043 C26.217234,74.8934043 27.2340426,75.9102128 27.2340426,77.1629787 C27.2340426,78.4159574 26.217234,79.4325532 24.9644681,79.4325532 Z" id="Shape" fill="#000000"></path>
                <path d="M34.0425532,68.0851064 L15.8865957,68.0851064 C14.6338298,68.0851064 13.6170213,67.0682979 13.6170213,65.8155319 C13.6170213,64.562766 14.6338298,63.5459574 15.8865957,63.5459574 L34.0425532,63.5459574 C35.2953191,63.5459574 36.3121277,64.562766 36.3121277,65.8155319 C36.3121277,67.0682979 35.2953191,68.0851064 34.0425532,68.0851064 Z" id="Shape" fill="#000000"></path>
                <path d="M52.1985106,68.0851064 L43.1204255,68.0851064 C41.8676596,68.0851064 40.8508511,67.0682979 40.8508511,65.8155319 C40.8508511,64.562766 41.8676596,63.5459574 43.1204255,63.5459574 L52.1985106,63.5459574 C53.4512766,63.5459574 54.4680851,64.562766 54.4680851,65.8155319 C54.4680851,67.0682979 53.4512766,68.0851064 52.1985106,68.0851064 Z" id="Shape" fill="#000000"></path>
                <circle id="Oval" fill="#13BA8E" cx="65.8155319" cy="54.4680851" r="18.1559574"></circle>
                <path d="M65.8155319,74.893617 C54.5542553,74.893617 45.39,65.7293617 45.39,54.4680851 C45.39,43.2068085 54.5542553,34.0425532 65.8155319,34.0425532 C77.0768085,34.0425532 86.2410638,43.2068085 86.2410638,54.4680851 C86.2410638,65.7293617 77.0768085,74.893617 65.8155319,74.893617 Z M65.8155319,38.5814894 C57.0553191,38.5814894 49.9289362,45.7076596 49.9289362,54.4680851 C49.9289362,63.2285106 57.0551064,70.3546809 65.8155319,70.3546809 C74.5759574,70.3546809 81.7021277,63.2282979 81.7021277,54.4680851 C81.7021277,45.7078723 74.5759574,38.5814894 65.8155319,38.5814894 Z" id="Shape" fill="#000000"></path>
                <path d="M65.8155319,61.2765957 C65.216383,61.2765957 64.6376596,61.0406383 64.2110638,60.6117021 L57.4025532,53.8031915 C56.5151064,52.9157447 56.5151064,51.4814894 57.4025532,50.5940426 C58.29,49.7065957 59.7242553,49.7065957 60.6117021,50.5940426 L65.3640426,55.346383 L70.6770213,46.4908511 C71.3214894,45.4151064 72.7151064,45.0678723 73.7908511,45.7123404 C74.8665957,46.3568085 75.2138298,47.7504255 74.5693617,48.8261702 L67.7608511,60.173617 C67.4023404,60.772766 66.7848936,61.1721277 66.092766,61.2585106 C66.0017021,61.2721277 65.9087234,61.2765957 65.8155319,61.2765957 Z" id="Shape" fill="#000000"></path>
            </g>
        </g>
    </g>
</svg>

<svg width="87" height="100" viewBox="0 0 87 100" xmlns="http://www.w3.org/2000/svg"><g fill-rule="nonzero" fill="none"><path d="M65.816 93.05c0 2.507-2.032 4.54-4.54 4.54H6.81c-2.51 0-4.54-2.033-4.54-4.54V15.887c0-2.508 2.03-4.54 4.54-4.54h54.467c2.507 0 4.54 2.032 4.54 4.54V93.05z" fill="#FFF"/><path d="M61.277 99.858H6.81C3.054 99.858 0 96.803 0 93.05V15.887c0-3.754 3.055-6.81 6.81-6.81h54.467c3.753 0 6.808 3.056 6.808 6.81V93.05c0 3.753-3.055 6.808-6.808 6.808zM6.81 13.618c-1.252 0-2.27 1.018-2.27 2.27V93.05c0 1.25 1.018 2.27 2.27 2.27h54.467c1.25 0 2.27-1.02 2.27-2.27V15.887c0-1.25-1.02-2.27-2.27-2.27H6.81z" fill="#000"/><path d="M54.468 90.78h-40.85c-2.51 0-4.54-2.03-4.54-4.54V20.427h49.93V86.24c0 2.51-2.032 4.54-4.54 4.54z" fill="#D8EFF7"/><path d="M56.738 20.426h-45.39v-4.54c0-7.52 6.095-13.616 13.616-13.616H43.12c7.52 0 13.617 6.096 13.617 13.617v4.54z" fill="#0093FF"/><path d="M56.738 22.695h-45.39c-1.253 0-2.27-1.017-2.27-2.27v-4.538C9.078 7.127 16.204 0 24.964 0H43.12c8.76 0 15.887 7.126 15.887 15.887v4.54c0 1.25-1.017 2.268-2.27 2.268zm-43.12-4.54h40.85v-2.268c0-6.257-5.09-11.348-11.347-11.348H24.966c-6.258 0-11.348 5.09-11.348 11.347v2.27z" fill="#000"/><circle fill="#000" cx="34.043" cy="11.347" r="2.27"/><path d="M52.2 34.043H15.886c-1.253 0-2.27-1.017-2.27-2.27 0-1.253 1.017-2.27 2.27-2.27H52.2c1.25 0 2.268 1.017 2.268 2.27 0 1.253-1.017 2.27-2.27 2.27zM34.043 45.39H15.887c-1.253 0-2.27-1.017-2.27-2.27 0-1.252 1.017-2.27 2.27-2.27h18.156c1.252 0 2.27 1.018 2.27 2.27 0 1.253-1.018 2.27-2.27 2.27zM52.2 45.39h-9.08c-1.252 0-2.27-1.017-2.27-2.27 0-1.252 1.018-2.27 2.27-2.27h9.08c1.25 0 2.268 1.018 2.268 2.27 0 1.253-1.017 2.27-2.27 2.27zM52.2 56.738H34.042c-1.253 0-2.27-1.017-2.27-2.27 0-1.253 1.017-2.27 2.27-2.27H52.2c1.25 0 2.268 1.017 2.268 2.27 0 1.253-1.017 2.27-2.27 2.27zM24.964 56.738h-9.078c-1.252 0-2.27-1.017-2.27-2.27 0-1.253 1.018-2.27 2.27-2.27h9.08c1.25 0 2.268 1.017 2.268 2.27 0 1.253-1.017 2.27-2.27 2.27zM52.2 79.433H34.042c-1.253 0-2.27-1.017-2.27-2.27 0-1.253 1.017-2.27 2.27-2.27H52.2c1.25 0 2.268 1.017 2.268 2.27 0 1.253-1.017 2.27-2.27 2.27zM24.964 79.433h-9.078c-1.252 0-2.27-1.017-2.27-2.27 0-1.253 1.018-2.27 2.27-2.27h9.078c1.253 0 2.27 1.017 2.27 2.27 0 1.253-1.017 2.27-2.27 2.27zM34.043 68.085H15.887c-1.253 0-2.27-1.017-2.27-2.27 0-1.252 1.017-2.27 2.27-2.27h18.156c1.252 0 2.27 1.018 2.27 2.27 0 1.253-1.018 2.27-2.27 2.27zM52.2 68.085h-9.08c-1.252 0-2.27-1.017-2.27-2.27 0-1.252 1.018-2.27 2.27-2.27h9.08c1.25 0 2.268 1.018 2.268 2.27 0 1.253-1.017 2.27-2.27 2.27z" fill="#000"/><circle fill="#13BA8E" cx="65.816" cy="54.468" r="18.156"/><path d="M65.816 74.894c-11.262 0-20.426-9.165-20.426-20.426 0-11.26 9.164-20.425 20.426-20.425 11.26 0 20.425 9.164 20.425 20.425 0 11.26-9.163 20.426-20.424 20.426zm0-36.313c-8.76 0-15.887 7.128-15.887 15.888s7.125 15.887 15.886 15.887c8.76 0 15.886-7.127 15.886-15.887 0-8.76-7.126-15.887-15.886-15.887z" fill="#000"/><path d="M65.816 61.277c-.6 0-1.178-.236-1.605-.665l-6.807-6.81c-.888-.886-.888-2.32 0-3.208.887-.887 2.32-.887 3.21 0l4.75 4.752 5.314-8.855c.644-1.075 2.038-1.422 3.114-.778 1.077.645 1.424 2.038.78 3.114l-6.81 11.348c-.358.6-.975.998-1.667 1.085-.09.012-.184.017-.277.017z" fill="#000"/></g></svg>
